Suru++-Ubuntu/apps/symbolic/stardew-valley-symbolic.svg

<svg width="16" height="16" version="1.1" xmlns="http://www.w3.org/2000/svg">
 <path d="m10.196567 15.861853c-0.17431-0.160672-0.3400186-0.455601-0.41264-0.734411-0.0285-0.109419-0.059686-0.20681-0.069302-0.216426-0.00962-0.0096-0.1276012-0.08036-0.262188-0.157196-0.2842567-0.16229-0.3537852-0.245975-0.2539136-0.305604 0.161013-0.09614 0.3324-0.281801 0.4139032-0.448382 0.091994-0.18803 0.1960307-0.53321 0.1688886-0.560352-0.00858-0.0086-0.1515685 0.02609-0.3177573 0.07709-0.7971439 0.244529-1.7967693 0.281257-2.5372068 0.09322-0.130969-0.03325-0.2444153-0.05419-0.2521027-0.04649-0.021149 0.02113 0.1027854 0.364119 0.171592 0.474867 0.092111 0.148257 0.2256521 0.286058 0.330062 0.340596 0.051701 0.02702 0.094002 0.07099 0.094002 0.09776 0 0.06025-0.1667208 0.187642-0.3953101 0.302044-0.1651854 0.08268-0.1758778 0.09656-0.2332193 0.302803-0.1690226 0.607942-0.6107577 1.050489-0.8189401 0.82045-0.082535-0.0912-0.070684-0.322163 0.032413-0.631739 0.048943-0.146961 0.080689-0.2755 0.070548-0.285641-0.010141-0.01015-0.1155583 0.01373-0.2342628 0.05304-0.3647527 0.120786-0.5624506 0.146707-0.6953791 0.09116-0.1458892-0.06096-0.1974625-0.209326-0.098048-0.282071 0.1411022-0.103251 0.7479674-0.227209 1.312531-0.268101l0.3247368-0.023531-0.1257235-0.257176c-0.1287937-0.263461-0.2673785-0.713913-0.2673785-0.869079 0-0.06953-0.044868-0.115931-0.2243384-0.231995-0.7898557-0.510811-1.2174645-1.36716-1.2252039-2.453651-0.00177-0.249036-0.010469-0.45285-0.019325-0.452919-0.00886-7.8e-5 -0.1025922 0.08546-0.2083041 0.190065-0.2011192 0.199018-0.4067257 0.298915-0.5260976 0.255606-0.038435-0.01393-0.1042466-0.07572-0.1462437-0.137267-0.051373-0.07529-0.081807-0.09654-0.093007-0.06495-0.00916 0.02584-0.057087 0.162329-0.1065112 0.303333-0.049424 0.141009-0.1576476 0.396071-0.2404967 0.566815-0.336196 0.692862-0.4999025 0.58971-0.5060473-0.318853-0.00167-0.249036-0.010916-0.45285-0.020517-0.452924-0.0096-7.8e-5 -0.092668 0.125376-0.1845949 0.278771-0.2601526 0.43411-0.5433428 0.697013-0.6189783 0.574634-0.037243-0.06027-0.025008-0.790916 0.017124-1.022136 0.1664831-0.9137424 0.8070681-1.7503743 1.7827565-2.3283547 0.3923405-0.2324171 0.8456109-0.4397571 1.0302755-0.4712825l0.1379547-0.0235374-0.2048067-0.1264154c-0.2505713-0.1546603-0.4714933-0.3886858-0.5680246-0.6017188-0.1078381-0.2379827-0.1008543-0.6365886 0.0161133-0.9195571l0.087966-0.2128124-0.1238748-0.074079c-0.074419-0.044525-0.1060355-0.080351-0.079191-0.08979 0.027558-0.00971-0.03512-0.087927-0.1635055-0.2041134-0.1145055-0.1036188-0.2314427-0.2333638-0.2598602-0.2883187l-0.051668-0.099916 0.2066289 0.104305c0.2156785 0.1088751 0.2439068 0.1033929 0.1509492-0.029324-0.046403-0.066248-0.1615303-0.3804134-0.1392369-0.3799525 0.00382 7.85e-5 0.082584 0.038543 0.1750721 0.08546 0.092489 0.046928 0.188335 0.085313 0.2129914 0.085313 0.05207 0 0.056016-0.015594 0.1470695-0.5814914 0.037846-0.2352164 0.093734-0.5120946 0.1241951-0.6152865 0.2953124-1.0004571 1.0243053-1.7729544 2.0037087-2.1232988 0.2901705-0.103795 0.3021824-0.1124205 0.4013896-0.2882056 0.056248-0.099666 0.1501392-0.2357319 0.2086477-0.30236724 0.1048444-0.11941312 0.4121884-0.36219646 0.4585085-0.36219646 0.013073 0 0.012857 0.0496884-4.785e-4 0.11042471-0.020046 0.0912761-0.016074 0.10382935 0.02292 0.0724069 0.4363274-0.35162908 0.8495132-0.59124959 1.2550954-0.72787927 0.3323211-0.11195465 0.3733752-0.09557655 0.1881251 0.0750353-0.1838938 0.16936138-0.5735014 0.63738781-0.5500856 0.66080261 0.00881 0.008827 0.084009-0.0131417 0.1671047-0.048742 0.083093-0.0356003 0.2613583-0.0898393 0.3961417-0.12049676 0.2538999-0.05775 0.6930322-0.0760111 0.6930322-0.0288333 0 0.014809-0.077913 0.10325562-0.1731381 0.19655198-0.161396 0.15812709-0.442152 0.53721163-0.442152 0.59700643 0 0.014564 0.056577 0.037071 0.1257265 0.050066 0.2313687 0.043397 0.7429039 0.2288031 1.0482429 0.3799132 0.947477 0.468909 1.462125 1.1534795 1.609989 2.1415549 0.02608 0.1742454 0.07161 0.4014205 0.10118 0.5048233 0.02957 0.1034027 0.05395 0.2384779 0.05417 0.3001704 2.35e-4 0.065321 0.02078 0.1199868 0.04919 0.1308876 0.03893 0.014956 0.215007-0.050517 0.401969-0.1494331 0.04017-0.021233-0.04096 0.2278862-0.115168 0.3536592-0.03883 0.065812-0.06485 0.1253465-0.05781 0.1322998 7e-3 0.00696 0.101251-0.031432 0.209379-0.085303l0.196595-0.09795-0.04935 0.095429c-0.02714 0.052488-0.142156 0.1813556-0.255586 0.2863717-0.113429 0.105016-0.187695 0.1971159-0.165034 0.2046723 0.05243 0.017457-0.105328 0.1220414-0.273905 0.1815518-0.07461 0.026333-0.122925 0.063767-0.115991 0.089864 0.13371 0.503254 0.149603 0.6048424 0.132512 0.847106-0.02477 0.3511632-0.1289 0.6092263-0.338244 0.8382795-0.167856 0.1836652-0.169768 0.1881226-0.08072 0.1881226 0.102111 0 0.709434 0.398802 1.180408 0.7751257 0.695562 0.5557719 1.276117 1.2578336 1.435031 1.7353684 0.178678 0.536928 0.02017 1.021622-0.316208 0.966917l-0.110432-0.01795 0.01112 0.158873c0.01608 0.229759-0.03707 0.346873-0.157403 0.346873-0.222238 0-0.682689-0.425233-0.899068-0.830302l-0.113393-0.212273-0.02806 0.134056c-0.06442 0.30782-0.191532 0.304829-0.612598-0.01442-0.173579-0.131599-0.325901-0.239277-0.338493-0.239277-0.01259 0-0.03206 0.157666-0.04326 0.350373-0.02149 0.369567-0.13527 0.890464-0.263547 1.206513-0.04217 0.103893-0.06818 0.19738-0.05781 0.207752 0.01037 0.01035 0.113134 0.02741 0.228356 0.03786l0.209497 0.01898-0.08971 0.09364c-0.04934 0.0515-0.142401 0.122017-0.206796 0.156696-0.0644 0.03467-0.117082 0.07494-0.117082 0.08946 0 0.02378 0.290157 0.04394 0.405078 0.0282 0.02539-0.0034 0.03663 0.0091 0.02499 0.0279-0.03064 0.04957-0.35478 0.165061-0.542153 0.193158-0.08837 0.01324-0.152513 0.03732-0.142535 0.05345 0.03289 0.05322-0.16163 0.07588-0.325896 0.03795-0.139516-0.03222-0.179737-0.02815-0.297344 0.03006-0.134435 0.06651-0.136485 0.07043-0.177539 0.338605-0.0468 0.305731-0.155843 0.649529-0.2898906 0.914006-0.04971 0.09808-0.09038 0.184318-0.09038 0.191644 0 0.0073 0.1361836 0.02359 0.3026296 0.03619 0.583001 0.04399 1.173667 0.165521 1.318139 0.27116 0.04741 0.03467 0.05836 0.07055 0.04173 0.136782-0.04801 0.191285-0.317644 0.216711-0.77295 0.07288-0.154363-0.04874-0.286289-0.08303-0.293169-0.07615-0.0069 0.0069 0.02532 0.131648 0.07156 0.277261 0.09749 0.307011 0.109877 0.573288 0.03036 0.65281-0.09594 0.09594-0.242263 0.06588-0.403715-0.08295zm-1.7530457-8.793587c0.1292801-0.1822039 0.4329734-0.7391184 0.4329734-0.7939899 0-0.00981-0.2779164-0.017849-0.6175934-0.017849h-0.6175938l0.023822 0.076913c0.081063 0.2617212 0.5152601 0.9485718 0.5996456 0.9485718 0.014936 0 0.095373-0.09614 0.1787454-0.2136411zm-1.5080082-1.2533958c0.2397819-0.2683606-0.031957-0.686478-0.4461514-0.686478-0.1241342 0-0.1687724 0.019565-0.2654498 0.1162208-0.1265694 0.1265724-0.1409763 0.2035004-0.069665 0.3719841 0.1376153 0.3251348 0.5698943 0.4348387 0.7812662 0.1982731zm3.0643723 0.040504c0.1224726-0.090698 0.2439196-0.2756818 0.2439196-0.3715281 0-0.2095563-0.162054-0.3554735-0.3947836-0.3554735-0.2565353 0-0.4776589 0.1806544-0.5168673 0.4222707-0.02317 0.1427789 0.028829 0.2445585 0.1703573 0.3334514 0.1335174 0.083867 0.363256 0.070597 0.497374-0.028735zm-4.3096345-2.4798365c0.115295-0.2042948 0.3395863-0.4225992 0.4670546-0.4545905 0.047036-0.011818 0.1589456-0.012161 0.2486863-4.903e-4 0.3189832 0.040504 0.3317621 0.039768 0.3437887-0.020154 0.022174-0.1104591-0.1139274-0.1986507-0.3065619-0.1986507-0.3203204 0-0.5801566 0.1848715-0.7584494 0.5396389-0.088135 0.1753683-0.1379787 0.3149304-0.1124784 0.3149304 0.00887 0 0.061955-0.081194 0.1179601-0.1804338zm5.0568821-0.1012451c-0.192575-0.3895145-0.438323-0.5728953-0.7677386-0.5728953-0.1954331 0-0.3316317 0.087471-0.3093129 0.1986507 0.012024 0.059908 0.024807 0.060658 0.3437865 0.020154 0.08974-0.011376 0.201651-0.011082 0.248687 4.904e-4 0.127814 0.03207 0.351867 0.2504918 0.467933 0.4561498 0.148739 0.2635502 0.160833 0.1888435 0.01664-0.1028045z" style="fill:#808080"/>
</svg>

<svg xmlns="http://www.w3.org/2000/svg" width="16" height="16" version="1.1">
 <path style="fill:#808080" d="M 10.196567,15.861853 C 10.022257,15.701181 9.8565484,15.406252 9.783927,15.127442 9.755427,15.018023 9.724241,14.920632 9.714625,14.911016 9.705005,14.901416 9.5870238,14.830656 9.452437,14.75382 9.1681803,14.59153 9.0986518,14.507845 9.1985234,14.448216 c 0.161013,-0.09614 0.3324,-0.281801 0.4139032,-0.448382 0.091994,-0.18803 0.1960307,-0.53321 0.1688886,-0.560352 -0.00858,-0.0086 -0.1515685,0.02609 -0.3177573,0.07709 -0.7971439,0.244529 -1.7967693,0.281257 -2.5372068,0.09322 -0.130969,-0.03325 -0.2444153,-0.05419 -0.2521027,-0.04649 -0.021149,0.02113 0.1027854,0.364119 0.171592,0.474867 0.092111,0.148257 0.2256521,0.286058 0.330062,0.340596 0.051701,0.02702 0.094002,0.07099 0.094002,0.09776 0,0.06025 -0.1667208,0.187642 -0.3953101,0.302044 -0.1651854,0.08268 -0.1758778,0.09656 -0.2332193,0.302803 -0.1690226,0.607942 -0.6107577,1.050489 -0.8189401,0.82045 -0.082535,-0.0912 -0.070684,-0.322163 0.032413,-0.631739 0.048943,-0.146961 0.080689,-0.2755 0.070548,-0.285641 -0.010141,-0.01015 -0.1155583,0.01373 -0.2342628,0.05304 C 5.3263804,15.158268 5.1286825,15.184189 4.995754,15.128642 4.8498648,15.067682 4.7982915,14.919316 4.897706,14.846571 5.0388082,14.74332 5.6456734,14.619362 6.210237,14.57847 L 6.5349738,14.554939 6.4092503,14.297763 C 6.2804566,14.034302 6.1418718,13.58385 6.1418718,13.428684 c 0,-0.06953 -0.044868,-0.115931 -0.2243384,-0.231995 -0.7898557,-0.510811 -1.2174645,-1.36716 -1.2252039,-2.453651 -0.00177,-0.249036 -0.010469,-0.45285 -0.019325,-0.452919 -0.00886,-7.8e-5 -0.1025922,0.08546 -0.2083041,0.190065 -0.2011192,0.199018 -0.4067257,0.298915 -0.5260976,0.255606 -0.038435,-0.01393 -0.1042466,-0.07572 -0.1462437,-0.137267 -0.051373,-0.07529 -0.081807,-0.09654 -0.093007,-0.06495 -0.00916,0.02584 -0.057087,0.162329 -0.1065112,0.303333 -0.049424,0.141009 -0.1576476,0.396071 -0.2404967,0.566815 -0.336196,0.692862 -0.4999025,0.58971 -0.5060473,-0.318853 -0.00167,-0.249036 -0.010916,-0.45285 -0.020517,-0.452924 -0.0096,-7.8e-5 -0.092668,0.125376 -0.1845949,0.278771 -0.2601526,0.43411 -0.5433428,0.697013 -0.6189783,0.574634 -0.037243,-0.06027 -0.025008,-0.790916 0.017124,-1.022136 C 2.2058138,9.5494706 2.8463988,8.7128387 3.8220872,8.1348583 4.2144277,7.9024412 4.6676981,7.6951012 4.8523627,7.6635758 L 4.9903174,7.6400384 4.7855107,7.513623 C 4.5349394,7.3589627 4.3140174,7.1249372 4.2174861,6.9119042 4.109648,6.6739215 4.1166318,6.2753156 4.2335994,5.9923471 L 4.3215654,5.7795347 4.1976906,5.7054557 C 4.1232716,5.6609307 4.0916551,5.6251047 4.1184996,5.6156657 4.1460576,5.6059557 4.0833796,5.5277387 3.9549941,5.4115523 3.8404886,5.3079335 3.7235514,5.1781885 3.6951339,5.1232336 l -0.051668,-0.099916 0.2066289,0.104305 C 4.0657733,5.2364977 4.0940016,5.2310155 4.001044,5.0982986 3.954641,5.0320506 3.8395137,4.7178852 3.8618071,4.7183461 c 0.00382,7.85e-5 0.082584,0.038543 0.1750721,0.08546 0.092489,0.046928 0.188335,0.085313 0.2129914,0.085313 0.05207,0 0.056016,-0.015594 0.1470695,-0.5814914 C 4.4347861,4.0724113 4.4906741,3.7955331 4.5211352,3.6923412 4.8164476,2.6918841 5.5454405,1.9193868 6.5248439,1.5690424 6.8150144,1.4652474 6.8270263,1.4566219 6.9262335,1.2808368 6.9824815,1.1811708 7.0763727,1.0451049 7.1348812,0.97846956 7.2397256,0.85905644 7.5470696,0.6162731 7.5933897,0.6162731 c 0.013073,0 0.012857,0.0496884 -4.785e-4,0.11042471 -0.020046,0.0912761 -0.016074,0.10382935 0.02292,0.0724069 C 8.0521586,0.44747563 8.4653444,0.20785512 8.8709266,0.07122544 9.2032477,-0.04072921 9.2443018,-0.02435111 9.0590517,0.14626074 8.8751579,0.31562212 8.4855503,0.78364855 8.5089661,0.80706335 c 0.00881,0.008827 0.084009,-0.0131417 0.1671047,-0.048742 0.083093,-0.0356003 0.2613583,-0.0898393 0.3961417,-0.12049676 0.2538999,-0.05775 0.6930322,-0.0760111 0.6930322,-0.0288333 0,0.014809 -0.077913,0.10325562 -0.1731381,0.19655198 -0.161396,0.15812709 -0.442152,0.53721163 -0.442152,0.59700643 0,0.014564 0.056577,0.037071 0.1257265,0.050066 0.2313687,0.043397 0.7429039,0.2288031 1.0482429,0.3799132 0.947477,0.468909 1.462125,1.1534795 1.609989,2.1415549 0.02608,0.1742454 0.07161,0.4014205 0.10118,0.5048233 0.02957,0.1034027 0.05395,0.2384779 0.05417,0.3001704 2.35e-4,0.065321 0.02078,0.1199868 0.04919,0.1308876 0.03893,0.014956 0.215007,-0.050517 0.401969,-0.1494331 0.04017,-0.021233 -0.04096,0.2278862 -0.115168,0.3536592 -0.03883,0.065812 -0.06485,0.1253465 -0.05781,0.1322998 0.007,0.00696 0.101251,-0.031432 0.209379,-0.085303 l 0.196595,-0.09795 -0.04935,0.095429 c -0.02714,0.052488 -0.142156,0.1813556 -0.255586,0.2863717 -0.113429,0.105016 -0.187695,0.1971159 -0.165034,0.2046723 0.05243,0.017457 -0.105328,0.1220414 -0.273905,0.1815518 -0.07461,0.026333 -0.122925,0.063767 -0.115991,0.089864 0.13371,0.503254 0.149603,0.6048424 0.132512,0.847106 -0.02477,0.3511632 -0.1289,0.6092263 -0.338244,0.8382795 -0.167856,0.1836652 -0.169768,0.1881226 -0.08072,0.1881226 0.102111,0 0.709434,0.398802 1.180408,0.7751257 0.695562,0.5557719 1.276117,1.2578336 1.435031,1.7353684 0.178678,0.536928 0.02017,1.021622 -0.316208,0.966917 l -0.110432,-0.01795 0.01112,0.158873 c 0.01608,0.229759 -0.03707,0.346873 -0.157403,0.346873 -0.222238,0 -0.682689,-0.425233 -0.899068,-0.830302 l -0.113393,-0.212273 -0.02806,0.134056 c -0.06442,0.30782 -0.191532,0.304829 -0.612598,-0.01442 -0.173579,-0.131599 -0.325901,-0.239277 -0.338493,-0.239277 -0.01259,0 -0.03206,0.157666 -0.04326,0.350373 -0.02149,0.369567 -0.13527,0.890464 -0.263547,1.206513 -0.04217,0.103893 -0.06818,0.19738 -0.05781,0.207752 0.01037,0.01035 0.113134,0.02741 0.228356,0.03786 l 0.209497,0.01898 -0.08971,0.09364 c -0.04934,0.0515 -0.142401,0.122017 -0.206796,0.156696 -0.0644,0.03467 -0.117082,0.07494 -0.117082,0.08946 0,0.02378 0.290157,0.04394 0.405078,0.0282 0.02539,-0.0034 0.03663,0.0091 0.02499,0.0279 -0.03064,0.04957 -0.35478,0.165061 -0.542153,0.193158 -0.08837,0.01324 -0.152513,0.03732 -0.142535,0.05345 0.03289,0.05322 -0.16163,0.07588 -0.325896,0.03795 -0.139516,-0.03222 -0.179737,-0.02815 -0.297344,0.03006 -0.134435,0.06651 -0.136485,0.07043 -0.177539,0.338605 -0.0468,0.305731 -0.155843,0.649529 -0.2898906,0.914006 -0.04971,0.09808 -0.09038,0.184318 -0.09038,0.191644 0,0.0073 0.1361836,0.02359 0.3026296,0.03619 0.583001,0.04399 1.173667,0.165521 1.318139,0.27116 0.04741,0.03467 0.05836,0.07055 0.04173,0.136782 -0.04801,0.191285 -0.317644,0.216711 -0.77295,0.07288 -0.154363,-0.04874 -0.286289,-0.08303 -0.293169,-0.07615 -0.0069,0.0069 0.02532,0.131648 0.07156,0.277261 0.09749,0.307011 0.109877,0.573288 0.03036,0.65281 -0.09594,0.09594 -0.242263,0.06588 -0.403715,-0.08295 z M 8.4435213,7.068266 C 8.5728014,6.8860621 8.8764947,6.3291476 8.8764947,6.2742761 c 0,-0.00981 -0.2779164,-0.017849 -0.6175934,-0.017849 H 7.6413075 l 0.023822,0.076913 c 0.081063,0.2617212 0.5152601,0.9485718 0.5996456,0.9485718 0.014936,0 0.095373,-0.09614 0.1787454,-0.2136411 z M 6.9355131,5.8148702 C 7.175295,5.5465096 6.9035561,5.1283922 6.4893617,5.1283922 c -0.1241342,0 -0.1687724,0.019565 -0.2654498,0.1162208 -0.1265694,0.1265724 -0.1409763,0.2035004 -0.069665,0.3719841 0.1376153,0.3251348 0.5698943,0.4348387 0.7812662,0.1982731 z m 3.0643723,0.040504 c 0.1224726,-0.090698 0.2439196,-0.2756818 0.2439196,-0.3715281 0,-0.2095563 -0.162054,-0.3554735 -0.3947836,-0.3554735 -0.2565353,0 -0.4776589,0.1806544 -0.5168673,0.4222707 -0.02317,0.1427789 0.028829,0.2445585 0.1703573,0.3334514 0.1335174,0.083867 0.363256,0.070597 0.497374,-0.028735 z M 5.6902509,3.3755377 C 5.8055459,3.1712429 6.0298372,2.9529385 6.1573055,2.9209472 6.2043415,2.9091292 6.3162511,2.9087862 6.4059918,2.9204569 6.724975,2.9609609 6.7377539,2.9602249 6.7497805,2.9003029 6.7719545,2.7898438 6.6358531,2.7016522 6.4432186,2.7016522 c -0.3203204,0 -0.5801566,0.1848715 -0.7584494,0.5396389 -0.088135,0.1753683 -0.1379787,0.3149304 -0.1124784,0.3149304 0.00887,0 0.061955,-0.081194 0.1179601,-0.1804338 z M 10.747133,3.2742926 C 10.554558,2.8847781 10.30881,2.7013973 9.9793944,2.7013973 c -0.1954331,0 -0.3316317,0.087471 -0.3093129,0.1986507 0.012024,0.059908 0.024807,0.060658 0.3437865,0.020154 0.08974,-0.011376 0.201651,-0.011082 0.248687,4.904e-4 0.127814,0.03207 0.351867,0.2504918 0.467933,0.4561498 0.148739,0.2635502 0.160833,0.1888435 0.01664,-0.1028045 z"/>
</svg>
